swiss/communes/0746.svg

<?xml version="1.0" encoding="UTF-8" standalone="no"?>
<svg
   xmlns:i="http://ns.adobe.com/AdobeIllustrator/10.0/"
   xmlns:dc="http://purl.org/dc/elements/1.1/"
   xmlns:cc="http://web.resource.org/cc/"
   xmlns:rdf="http://www.w3.org/1999/02/22-rdf-syntax-ns#"
   xmlns:svg="http://www.w3.org/2000/svg"
   xmlns="http://www.w3.org/2000/svg"
   xmlns:xlink="http://www.w3.org/1999/xlink"
   xmlns:sodipodi="http://sodipodi.sourceforge.net/DTD/sodipodi-0.dtd"
   xmlns:inkscape="http://www.inkscape.org/namespaces/inkscape"
   height="763"
   width="603"
   version="1.0"
   id="svg20"
   sodipodi:version="0.32"
   inkscape:version="0.44.1"
   sodipodi:docname="Safnern-coat of arms.svg"
   sodipodi:docbase="F:\Mis Documentos\Mis imágenes\Encyclopédie\Escudos de Suiza">
  <metadata
     id="metadata31">
    <rdf:RDF>
      <cc:Work
         rdf:about="">
        <dc:format>image/svg+xml</dc:format>
        <dc:type
           rdf:resource="http://purl.org/dc/dcmitype/StillImage" />
        <dc:date>07-AUG-2006</dc:date>
        <dc:creator>
          <cc:Agent>
            <dc:title>Jérôme BLUM (wagner51)</dc:title>
          </cc:Agent>
        </dc:creator>
        <cc:license
           rdf:resource="http://creativecommons.org/licenses/GPL/2.0/" />
        <dc:coverage />
        <dc:description>Gabarit pour le Projet:Blasons de WIkipédia</dc:description>
        <dc:subject>
          <rdf:Bag>
            <rdf:li>blason suisse modèle gabarit projet blasons</rdf:li>
          </rdf:Bag>
        </dc:subject>
        <dc:language>fr</dc:language>
        <dc:title>Gabrit d'un blason suisse</dc:title>
      </cc:Work>
      <cc:License
         rdf:about="http://creativecommons.org/licenses/GPL/2.0/">
        <cc:permits
           rdf:resource="http://web.resource.org/cc/Reproduction" />
        <cc:permits
           rdf:resource="http://web.resource.org/cc/Distribution" />
        <cc:requires
           rdf:resource="http://web.resource.org/cc/Notice" />
        <cc:permits
           rdf:resource="http://web.resource.org/cc/DerivativeWorks" />
        <cc:requires
           rdf:resource="http://web.resource.org/cc/ShareAlike" />
        <cc:requires
           rdf:resource="http://web.resource.org/cc/SourceCode" />
      </cc:License>
    </rdf:RDF>
  </metadata>
  <defs
     id="defs29">
    <linearGradient
       id="linearGradient2893">
      <stop
         style="stop-color:#ffffff;stop-opacity:0.3137255;"
         offset="0"
         id="stop2895" />
      <stop
         id="stop2897"
         offset="0.19"
         style="stop-color:#ffffff;stop-opacity:0.25098041;" />
      <stop
         style="stop-color:#6b6b6b;stop-opacity:0.1254902;"
         offset="0.60000002"
         id="stop2901" />
      <stop
         style="stop-color:#000000;stop-opacity:0.1254902;"
         offset="1"
         id="stop2899" />
    </linearGradient>
    <linearGradient
       id="linearGradient2955">
      <stop
         style="stop-color:white;stop-opacity:0;"
         offset="0"
         id="stop2965" />
      <stop
         style="stop-color:black;stop-opacity:0.64583331;"
         offset="1"
         id="stop2959" />
    </linearGradient>
    <radialGradient
       inkscape:collect="always"
       xlink:href="#linearGradient2893"
       id="radialGradient3236"
       gradientUnits="userSpaceOnUse"
       gradientTransform="matrix(1.215027,1.531577e-24,1.464684e-23,1.266667,-839.1924,-490.4894)"
       cx="858.04236"
       cy="579.93323"
       fx="858.04236"
       fy="579.93323"
       r="300" />
  </defs>
  <sodipodi:namedview
     inkscape:window-height="682"
     inkscape:window-width="1024"
     inkscape:pageshadow="2"
     inkscape:pageopacity="0.0"
     guidetolerance="10.0"
     gridtolerance="10.0"
     objecttolerance="10.0"
     borderopacity="1.0"
     bordercolor="#666666"
     pagecolor="#ffffff"
     id="base"
     inkscape:zoom="0.48301887"
     inkscape:cx="335.06248"
     inkscape:cy="338.56548"
     inkscape:window-x="-4"
     inkscape:window-y="-4"
     inkscape:current-layer="layer2"
     showgrid="true" />
  <desc
     id="desc22">Coat of Arms of Canton of Freiburg (Fribourg)</desc>
  <g
     inkscape:groupmode="layer"
     id="layer1"
     inkscape:label="Fond écu"
     sodipodi:insensitive="true">
    <path
       id="path1899"
       d="M 1.5,1.49998 L 1.5,460.3679 C 1.5,626.6785 135.81456,761.5 301.49999,761.5 C 467.18543,761.5 601.5,626.6785 601.5,460.3679 L 601.5,1.49998 L 1.5,1.49998 z "
       style="fill:#e20909;fill-opacity:1" />
  </g>
  <g
     inkscape:groupmode="layer"
     id="layer2"
     inkscape:label="Meubles"
     sodipodi:insensitive="true">
    <path
       style="opacity:1;fill:#fcef3c;fill-opacity:1;fill-rule:evenodd;stroke:black;stroke-width:2.99999905;stroke-linecap:square;stroke-linejoin:miter;stroke-miterlimit:4;stroke-dasharray:none;stroke-opacity:1"
       d="M 201.5,1.5 L 201.5,384.5 L 398.5,384.5 L 398.5,1.5 L 201.5,1.5 z "
       id="rect1921" />
    <path
       sodipodi:nodetypes="ccccccc"
       id="path1952"
       d="M 200.5,252.49996 L 298.94727,126.97262 L 400.5,252.49996 L 400.5,127.49996 L 300.5,2.4999605 L 200.5,127.49996 L 200.5,252.49996 z "
       style="fill:black;fill-opacity:1;fill-rule:evenodd;stroke:black;stroke-width:1px;stroke-linecap:butt;stroke-linejoin:miter;stroke-opacity:1" />
    <path
       style="fill:black;fill-opacity:1;fill-rule:evenodd;stroke:black;stroke-width:1px;stroke-linecap:butt;stroke-linejoin:miter;stroke-opacity:1"
       d="M 300.5,254.5 L 200.5,379.5 L 200.5,384.5 L 294.59375,384.5 L 298.9375,378.96875 L 303.40625,384.5 L 400.5,384.5 L 400.5,379.5 L 300.5,254.5 z "
       id="path1954" />
    <path
       style="opacity:1;fill:#fcef3c;fill-opacity:1;fill-rule:evenodd;stroke:black;stroke-width:2.37864757;stroke-linecap:square;stroke-linejoin:miter;stroke-miterlimit:4;stroke-dasharray:none;stroke-opacity:1"
       d="M 6.8768238,384.49823 C 4.2169638,384.49823 1.9733738,387.96295 1.1893238,392.77948 L 1.1893238,460.68573 C 1.1893238,626.99634 135.50393,761.81068 301.18932,761.81068 C 466.87479,761.81068 601.18932,626.99633 601.18932,460.68573 L 601.18932,392.77948 C 600.40528,387.96294 598.16167,384.49823 595.50182,384.49823 L 6.8768238,384.49823 z "
       id="rect2056" />
    <path
       style="fill:#2b5df2;fill-opacity:1;stroke:black;stroke-width:2.75000072;stroke-linecap:round;stroke-linejoin:round;stroke-miterlimit:4;stroke-dasharray:none;stroke-opacity:1"
       d="M 98.96875,398.06213 C 54.8847,397.99775 42.56272,423.84496 1.5000004,425.37463 L 1.5000004,460.37463 C 1.5000004,481.1422 3.6054404,501.41528 7.5937504,520.99963 C 48.37912,519.33695 60.72742,493.65356 104.6875,493.71838 C 150.1718,493.78547 151.74921,521.30991 196.0625,521.37463 C 240.37513,521.44009 252.04619,493.93189 297.53125,493.99963 C 343.01629,494.06737 364.59381,521.59323 408.9063,521.65588 C 453.2204,521.72266 464.8906,494.24365 510.375,494.31213 C 549.7442,494.36954 563.7206,514.97275 595.5,520.56213 C 599.4306,501.11355 601.5,480.98738 601.5,460.37463 L 601.5,426.21838 C 560.8734,424.36131 548.5466,398.72133 504.6563,398.65588 C 459.1726,398.58805 447.4995,426.0971 403.1875,426.03088 C 358.87357,425.96692 347.29746,398.44095 301.8125,398.37463 C 256.32756,398.30831 244.65638,425.78385 200.34375,425.71838 C 156.03046,425.65368 144.45305,398.12921 98.96875,398.06213 z "
       id="path1969"
       sodipodi:nodetypes="ccccscscccccscscc" />
    <g
       id="g20738"
       transform="translate(-8.8e-2,0.284899)">
      <path
         id="path4760"
         d="M 295.4375,512.75 C 242.42299,513.7794 214.87169,547.83539 198.71875,570.21875 C 198.71874,570.21875 121.45623,508.57707 58.3125,575.21875 C 49.204271,584.83152 42.701396,594.85014 38.375,605.0625 C 86.790602,693.58496 178.21963,755.02133 284.4375,761 C 284.47903,761.00234 284.52097,760.99768 284.5625,761 C 289.68792,761.13766 294.80655,761.1875 299.96875,761.1875 C 307.27592,761.18748 314.57403,761.05171 321.8125,760.78125 C 425.37971,753.83077 514.53024,694.14339 562.875,608.21875 C 558.59491,596.91072 551.73763,585.82563 541.6875,575.21875 C 478.548,508.57701 401.25,570.21875 401.25,570.21875 C 386.61566,545.92597 357.09107,513.96537 300.65625,512.78125 C 298.89266,512.74425 297.14765,512.71679 295.4375,512.75 z "
         style="fill:#5ab532;fill-opacity:1;stroke:black;stroke-width:3;stroke-miterlimit:4;stroke-dasharray:none;stroke-opacity:1" />
      <path
         id="path2005"
         d="M 302.12078,761.18682 C 297.22941,760.78669 417.57875,704.55769 402.1587,567.45937"
         i:knockout="Off"
         style="fill:none;stroke:black;stroke-width:3;stroke-linecap:round;stroke-linejoin:round;stroke-miterlimit:4;stroke-dasharray:none"
         sodipodi:nodetypes="cc" />
      <path
         id="path2003"
         d="M 296.8843,761.18682 C 297.1953,762.89953 183.83721,686.67498 197.78063,571.85118"
         i:knockout="Off"
         style="fill:none;stroke:black;stroke-width:3;stroke-linecap:round;stroke-linejoin:round;stroke-miterlimit:4;stroke-dasharray:none"
         sodipodi:nodetypes="cs" />
    </g>
  </g>
  <g
     inkscape:groupmode="layer"
     id="layer3"
     inkscape:label="Reflet final"
     style="display:inline"
     sodipodi:insensitive="true">
    <path
       style="fill:url(#radialGradient3236);fill-opacity:1"
       d="M 1.5,1.5 L 1.5,460.3679 C 1.5,626.67854 135.81454,761.5 301.49993,761.5 C 467.1854,761.5 601.5,626.67854 601.5,460.3679 L 601.5,1.5 L 1.5,1.5 z "
       id="path2346" />
  </g>
  <g
     inkscape:groupmode="layer"
     id="layer4"
     inkscape:label="Contour final"
     style="display:inline"
     sodipodi:insensitive="true">
    <path
       style="fill:none;fill-opacity:1;stroke:black;stroke-width:3;stroke-miterlimit:4;stroke-dasharray:none;stroke-opacity:1"
       d="M 1.5,1.5 L 1.5,460.36794 C 1.5,626.67854 135.81454,761.5 301.49993,761.5 C 467.1854,761.5 601.5,626.67854 601.5,460.36794 L 601.5,1.5 L 1.5,1.5 z "
       id="path3239" />
  </g>
</svg>

<svg xmlns="http://www.w3.org/2000/svg" xmlns:xlink="http://www.w3.org/1999/xlink" height="763" width="603" version="1.0"><defs><radialGradient xlink:href="#a" id="b" gradientUnits="userSpaceOnUse" gradientTransform="matrix(1.21503 0 0 1.26667 -839.192 -490.49)" cx="858.042" cy="579.933" fx="858.042" fy="579.933" r="300"/><linearGradient id="a"><stop style="stop-color:#fff;stop-opacity:.3137255" offset="0"/><stop offset=".19" style="stop-color:#fff;stop-opacity:.25098041"/><stop style="stop-color:#6b6b6b;stop-opacity:.1254902" offset=".6"/><stop style="stop-color:#000;stop-opacity:.1254902" offset="1"/></linearGradient></defs><path d="M1.5 1.5v458.868c0 166.31 134.315 301.132 300 301.132s300-134.822 300-301.132V1.5H1.5z" style="fill:#e20909;fill-opacity:1"/><path style="opacity:1;fill:#fcef3c;fill-opacity:1;fill-rule:evenodd;stroke:#000;stroke-width:2.99999905;stroke-linecap:square;stroke-linejoin:miter;stroke-miterlimit:4;stroke-dasharray:none;stroke-opacity:1" d="M201.5 1.5v383h197V1.5h-197z"/><path d="m200.5 252.5 98.447-125.527L400.5 252.5v-125l-100-125-100 125v125zM300.5 254.5l-100 125v5h94.094l4.344-5.531 4.468 5.531H400.5v-5l-100-125z" style="fill:#000;fill-opacity:1;fill-rule:evenodd;stroke:#000;stroke-width:1px;stroke-linecap:butt;stroke-linejoin:miter;stroke-opacity:1"/><path style="opacity:1;fill:#fcef3c;fill-opacity:1;fill-rule:evenodd;stroke:#000;stroke-width:2.37864757;stroke-linecap:square;stroke-linejoin:miter;stroke-miterlimit:4;stroke-dasharray:none;stroke-opacity:1" d="M6.877 384.498c-2.66 0-4.904 3.465-5.688 8.281v67.907c0 166.31 134.315 301.125 300 301.125 165.686 0 300-134.815 300-301.125v-67.907c-.784-4.816-3.027-8.28-5.687-8.28H6.877z"/><path style="fill:#2b5df2;fill-opacity:1;stroke:#000;stroke-width:2.75000072;stroke-linecap:round;stroke-linejoin:round;stroke-miterlimit:4;stroke-dasharray:none;stroke-opacity:1" d="M98.969 398.062c-44.084-.064-56.406 25.783-97.469 27.313v35c0 20.767 2.105 41.04 6.094 60.625 40.785-1.663 53.133-27.346 97.093-27.282 45.485.067 47.062 27.592 91.376 27.657 44.312.065 55.983-27.443 101.468-27.375 45.485.067 67.063 27.593 111.375 27.656 44.314.067 55.985-27.412 101.469-27.344 39.37.058 53.346 20.66 85.125 26.25 3.93-19.448 6-39.575 6-60.187v-34.157c-40.627-1.857-52.953-27.497-96.844-27.562-45.483-.068-57.156 27.441-101.469 27.375-44.313-.064-55.89-27.59-101.375-27.656-45.484-.067-57.156 27.409-101.468 27.343-44.314-.064-55.891-27.589-101.375-27.656z"/><path d="M295.438 512.75c-53.015 1.03-80.566 35.085-96.72 57.469 0 0-77.262-61.642-140.405 5-9.109 9.613-15.612 19.631-19.938 29.843C86.791 693.586 178.22 755.023 284.438 761c.041.002.083-.002.125 0a573.02 573.02 0 0 0 15.406.188c7.307 0 14.605-.136 21.844-.407 103.567-6.95 192.717-66.638 241.062-152.562-4.28-11.308-11.137-22.393-21.188-33-63.139-66.642-140.437-5-140.437-5-14.634-24.293-44.159-56.254-100.594-57.438-1.763-.037-3.508-.064-5.219-.031z" style="fill:#5ab532;fill-opacity:1;stroke:#000;stroke-width:3;stroke-miterlimit:4;stroke-dasharray:none;stroke-opacity:1" transform="translate(-.088 .285)"/><path d="M302.12 761.187c-4.89-.4 115.459-56.63 100.039-193.728M296.884 761.187c.311 1.713-113.047-74.512-99.103-189.336" style="fill:none;stroke:#000;stroke-width:3;stroke-linecap:round;stroke-linejoin:round;stroke-miterlimit:4;stroke-dasharray:none" transform="translate(-.088 .285)"/><g style="display:inline"><path style="fill:url(#b);fill-opacity:1" d="M1.5 1.5v458.868c0 166.31 134.315 301.132 300 301.132s300-134.821 300-301.132V1.5H1.5z"/></g><g style="display:inline"><path style="fill:none;fill-opacity:1;stroke:#000;stroke-width:3;stroke-miterlimit:4;stroke-dasharray:none;stroke-opacity:1" d="M1.5 1.5v458.868c0 166.31 134.315 301.132 300 301.132s300-134.821 300-301.132V1.5H1.5z"/></g></svg>
